!! "The Northern Courtyard", Item 10 from Laurence Picken et al
!! "Music From the Tang Court" Vol. 4, Cambridge University Press
!! (Cambridge) 1987; pp. 23-25
!! NOTE: This file contains an amalgamation of four coordinated ms sources.
!! SGYR	JCYR	SSSTF	KF/HSFRK (manuscripts)
!! Lute	Zither	Mouth	Mouth
!!		Organ	Organ
**kern	**kern	**kern	**kern
*M4/2	*M4/2	*M4/2	*M4/2
=1	=1	=1	=1
4D	4d 4dd	4dd	4dd
4A	4a	4a	4a
2A	2A 2a	4a	4a
.	.	4b	8b
.	.	.	8a
4A	4A 4a	4a	4a
{8G#	4a	4ff#	4ff#
8F#}	.	.	.
4F#	4D 4f#	[4gg	4gg
{16G#	{16g#	8gg]	4gg
16F#	16f#	.	.
8G#}	8g#}	8a	.
=2	=2	=2	=2
4A	4A 4a	4a	4a
4A	4a	4a	4a
4A	4A 4a	[4a	[4a
{8c#	{8cc#	8a]	8a]
8B}	8b}	8b	8b
4A	4A 4a	4a	4a
4A	4a	4a	4a
4d	{4d 16dd	[4dd	4dd
.	16cc#	.	.
.	8dd}	.	.
{8B	4b	8dd]	4g
8A}	.	8b	.
=3	=3	=3	=3
4F#	4f# 4ff#	[4ff#	[4ff#
{8F#	{16ee	16ff#]	8ff#]
.	16dd	16ee	.
8E}	8ee	8dd	8ee
{16F#	4f# 4ff#	2ff#	4ff#
16E	.	.	.
[8F#	.	.	.
8F#}]	4ff#	.	4ff#
8r	.	.	.
4F#	4D 4f#	4ff#	4ff#
{16A	{16a	4a	4a
16G#	16g#	.	.
8A}	8a}	.	.
4B	4B 4b	[4b	4b
{16A	{16a	8b]	4a
16G#	16g#	.	.
8A}	8a}	8a	.
=4	=4	=4	=4
4F#	4D 4f#	2ff#	4ff#
{16F#	4f#	.	[4ff#
16E	.	.	.
8F#}	.	.	.
{8F#	4e 4ee	4ee	8ff#]
8E}	.	.	8ee
4D	4dd	4dd	4dd
4d	2d 2dd	2dd	2dd
4r	.	.	.
4d	4d 4dd	[4dd	[4dd
4E	4ee	8dd]	8dd]
.	.	8ee	8ee
=5	=5	=5	=5
4F#	4f# 4ff#	4ff#	4ff#
{16G#	{16gg#	4gg	4gg
16F#	16ff#	.	.
8G#}	8gg#}	.	.
{8G#	{4f# 8gg#	8gg	8gg
8F#}	8ff#}	8ff#	8ff#
4E	4ee	4ee	4ee
4E	2e 2ee	2ee	2ee
4E	.	.	.
{16G#	{4f# 16gg#	4gg#	4gg#
16F#	16ff#	.	.
8G#}	8gg#}	.	.
4E	4ee	4ee	4ee
=6	=6	=6	=6
{16d	{4d 16dd	4dd	4dd
16c#	16cc#	.	.
8d}	8dd}	.	.
4E	4ee	4ee	8dd
.	.	.	8ee
{16d	{4d 16dd	4dd	4dd
16c#	16cc#	.	.
8d}	8dd}	.	.
4B	4b	4b	4b
{8c#	2B 2b	2b	2b
[8B	.	.	.
4B}]	.	.	.
4BB	4B 4b	2b	2b
4B	4b	.	.
=7	=7	=7	=7
4A	4A 4a	4a	4a
4B	4b	8a	4b
.	.	8b	.
{16d	{4d 16dd	4dd	4dd
16c#	16cc#	.	.
8d}	8dd}	.	.
4B	4b	4b	4b
{16d	{4d 16dd	2dd	2dd
16c#	16cc#	.	.
8d}	8dd}	.	.
4E	4ee	.	.
4E	2e 2ee	4ee	4ee
4E	.	4ee	4ee
=8	=8	=8	=8
4G#	4f# 4gg#	[4gg	[4gg
{8G#	{8gg#	8gg]	8gg]
8F#}	8ff#}	8ff#	8ff#
4E	4e 4ee	[4ee	[4ee
{16F#	4ff#	8ee]	8ee]
16E	.	.	.
8F#}	.	8ff#	8ff#
4AA	4a 4aa	4a	2a
4A	4aa	4a	.
4A	2a 2aa	2a	2a
4r	.	.	.
=9	=9	=9	=9
4A	4a 4aa	4a	4a
4A	4aa	8a	4a
.	.	8gg	.
{16G#	{4f# 16gg#	4gg	4gg
16F#	16ff#	.	.
8G#}	8gg#}	.	.
4E	4ee	4ee	4ee
4E	4e 4ee	2ee	2ee
4E	4ee	.	.
4d	4d 4dd	[4dd	[4dd
{8d	{16dd	8dd]	8dd]
.	16cc#	.	.
8c#}	8dd}	8cc#	8ccc
=10	=10	=10	=10
4B	4B 4b	4b	4b
{16c#	{16cc#	4ccc	4ccc
16B	16b	.	.
8c#}	8cc#}	.	.
{8c#	{4B 8cc#	8ccc	8ccc
8B}	8b}	8b	8b
4AA	4a	4a	4a
2A	2A 2a	2.a	2a
8A	8a	.	4a
8r	8r	.	.
4E	4e 4ee	[4ee	4ee
=11	=11	=11	=11
4E	4ee	4ee]	4ee
{16c#	{16cc#	8dd	4ccc
16B	16b	.	.
8c#}	8cc#}	8cc#	.
4E	4e 4ee	2ee	4ee
4E	4ee	.	4ee
4E	4e 4ee	[4ee	[4ee
{16F#	4ff#	8ee]	8ee]
16E	.	.	.
8F#}	.	8ff#	8ff#
4A	4a 4aa	[4a	4a
{16G#	{16gg#	8a]	4gg
16F#	16ff#	.	.
8G#}	8gg#}	8ff#	.
=12	=12	=12	=12
4B	4B 4b	4b	4b
{16c#	{16cc#	4ccc	4ccc
16B	16b	.	.
8c#}	8cc#}	.	.
{8c#	{4B 8cc#	8ccc	8ccc
8B}	8b}	8b	8b
4AA	4a	4a	4a
2A	2A 2a	2.a	2a
8A	8a	.	4a
8r	8r	.	.
{8B	4B 4b	4b	4b
8A}	.	.	.
=13	=13	=13	=13
{16F#	4f# 4ff#	4ff#	4ff#
16E	.	.	.
8F#	.	.	.
8E	4ff#	4ff#	4ff#
8F#}	.	.	.
{8F#	4e 4ee	8ff#	4ee
8E}	.	8ee	.
4D	4dd	4dd	4dd
2d	2d 2dd	2.dd	2dd
4D	4d 4dd	.	2dd
4d	4dd	4b	.
=14	=14	=14	=14
{16B	4B 4b	4b	4b
16A	.	.	.
8B}	.	.	.
4d	4dd	4dd	4dd
{8F#	{4e 8ff#	8ff#	4ee
8E}	8ee}	8ee	.
4D	4dd	4dd	4dd
2d	2d 2dd	2dd	2dd
4d	4d 4dd	2dd	2dd
4d	4dd	.	.
====	====	====	====
*-	*-	*-	*-
